X:1
T:Title
%%score { ( 1 3 4 ) | 2 }
L:1/8
M:3/4
K:D
V:1 treble nm="Grand Piano"
V:3 treble 
V:4 treble 
V:2 bass 
V:1
 z2 z2[Q:1/4=100] A2 | d2 A3 G | F2 D4 | GF GA B>c | d6 | [^Gd]2 [GB]2 [Ge]2 | [Ac]2 [EA]2 [Ee]2 | %7
 [Fd]2 [Ec]2 [DB]2 | [A,CA]4 A2 | d2 A3 G | F2 D3 D | GF GA B>c | d4 A2 | B2 G2 d2 | %14
 [FA]2 [DF]2 [Fd]2 | [B,EG]2 [DF]2[K:bass] [G,CE]2 |[M:2/4] [F,D]4 |[M:1/4][K:treble] [A,FA]2 | %18
[M:3/4] [DFA]2 [DFA]2 [A,FA]2 | [A,EA]2 [A,EA]2 [A,EA]2 | [DFB]2 [^GB]2 [Ge]2 | c4 A2 | B2 B2 B2 | %23
 [Gc]2 [Gc]2 [Gc]2 | z2 z2 d2 |[M:2/4] e4 |[M:1/4] A2 |[M:3/4] d2 A3 G | F2 D4 | GF GA B>c | %30
 d4 A2 | B2 G2 d2 | [FA]2 [DF]2 [Fd]2 | c3/2-(3c/4d/4-[cd]/4 B2 c2 |[M:2/4] [Fd]4 |[M:1/4] D2 | %36
[M:3/4] B6- | B2 A4 | G6 | F4 z2 | =c6- | c2 B4 | A6 |[M:2/4] G2 D2 |[M:1/4] (3DGB |[M:3/4] d6- | %46
 d2 z2 z2 | B2 =c2 E2 | z2 A4 | F6- | F2 z2 z2 | G6- |[M:2/4] G2 z2 |[M:1/4] A2 |[M:3/4] d2 A3 G | %55
 F2 D4 | GF GA B>c | d6 | [^Gd]2 [GB]2 [Ge]2 | [Ac]2 [EA]2 [Ee]2 | [Fd]2 [Ec]2 [DB]2 | [A,CA]4 A2 | %62
 d2 A3 G | F2 D3 D | GF GA B>c | d4 A2 | B2 G2 d2 | [FA]2 [DF]2 [Fd]2 | %68
 c3/2-(3c/4d/4-[cd]/4 B2 c2 |[M:2/4] [Fd]4 |[M:1/4] [FA][FA] |[M:3/4] [GB]2 .[FA]2 [FA][FA] | %72
 [GB]2 .[FA]2 [Fd][Fd] | [Ec]2 [EB]2 [Gc]2 |[M:2/4] [Fd]2 z2 |[M:1/4] [FA][FA] | %76
[M:3/4] [GB]2 .[FA]2 [FA][FA] | [GB]2 .[FA]2 [Fd][Fd] | [Ec]2 [EB]2 [Gc]2 |[M:2/4] [Fd]2 z2 | %80
[M:1/4] [Fd][Fd] |[M:3/4] [Ec]2 [EB]2 [Gc]2 | [Fd]2 z2 [Gc]2 | [Fd]6- |[M:2/4] [Fd]4 |] %85
V:2
 z2 z2 A,2 | D2 A,3 G, | F,2 D,4 | G,F, G,A, B,>C | D6 | [E,B,]2 [E,E]2 [E,B,]2 | %6
 [A,C]2 [A,C]2 [C,A,]2 | [D,A,]2 [E,A,]2 [E,^G,]2 | A,,4 A,2 | D2 A,3 G, | F,2 D,3 D, | %11
 G,F, G,A, B,>C | D4 [F,D]2 | [G,DG]2 [G,B,]2 [G,B,G]2 | [D,D]2 [D,A,]2 [D,A,]2 | G,2 A,2 A,,2 | %16
[M:2/4] D,4 |[M:1/4] D,2 |[M:3/4] D,2 D,2 D,2 | C,2 C,2 C,2 | B,,2 [E,E]2 [E,E]2 | %21
 [A,EA]4 [F,A,D]2 | [G,D]2 [G,D]2 [G,D]2 | [E,A,]2 [E,A,]2 [E,A,]2 | [B,,B,]2 [B,,B,]2 [E,B,]2 | %25
[M:2/4] [A,,CA]4 |[M:1/4] A,2 |[M:3/4] D2 A,3 G, | F,2 D,4 | G,F, G,A, B,>C | D4 [F,D]2 | %31
 [G,DG]2 [G,B,]2[K:bass] [G,,B,G]2 | [D,D]2 [D,A,]2 [D,A,]2 | [A,E]2[K:treble] [A,E]2 [A,G]2 | %34
[M:2/4][K:bass] [D,A,]4 |[M:1/4] [G,B,]2 |[M:3/4] [G,B,D]2 [G,B,]2 [G,B,]2 | %37
 [G,B,]2 [G,B,D]2 [G,B,]2 | [A,=CD]2 [A,C]2 [A,C]2 | [A,=CD]2 [A,C]2 [A,C]2 | %40
 [F,=CD]2 [F,C]2 [F,C]2 | [F,=C]2 [F,CD]2 [F,C]2 | [G,=CD]2 [G,C]2 [G,C]2 | %43
[M:2/4] [G,B,D]2 [G,B,]2 |[M:1/4] [G,B,]2 |[M:3/4] [B,,D,G,]2 [B,,D,]2 [B,,D,]2 | %46
 [B,,D,]2 [B,,D,G,]2 [B,,D,G,]2 | [=C,E,A,]2 [C,E,A,]2 [C,E,A,]2 | [=C,E,A,]2 [C,E,A,]2 [C,E,]2 | %49
 [D,A,=C]2 [D,A,]2 [D,A,]2 | [D,A,]2 [D,A,=C]2 [D,A,C]2 | [G,B,]2 G,2 G,2 |[M:2/4] [G,,G,]2 z2 | %53
[M:1/4] A,2 |[M:3/4] D2 A,3 G, | F,2 D,4 | G,F, G,A, B,>C | D6 | [E,B,]2 [E,E]2 [E,B,]2 | %59
 [A,C]2 [A,C]2 [C,C]2 | [D,A,]2 [E,A,]2 [E,^G,]2 | A,,4 A,2 | D2 A,3 G, | F,2 D,3 D, | %64
 G,F, G,A, B,>C | D4 [F,D]2 | [G,DG]2 [G,B,]2[K:bass] [G,,B,G]2 | [D,D]2 [D,A,]2 [D,A,]2 | %68
 [A,E]2[K:treble] [A,E]2 [A,G]2 |[M:2/4][K:bass] [D,A,]4 |[M:1/4] [D,D][D,D] | %71
[M:3/4] [D,D]2 .[D,D]2 [D,D][D,D] | [D,D]2 .[D,D]2 [D,A,][D,A,] | [A,,A,]2 [A,,A,]2 [A,,A,]2 | %74
[M:2/4] [D,A,]2 z2 |[M:1/4] [D,D][D,D] |[M:3/4] [D,D]2 .[D,D]2 [D,D][D,D] | %77
 [D,D]2 .[D,D]2 [D,A,][D,A,] | [A,,A,]2 [A,,A,]2 [A,,A,]2 |[M:2/4] [D,A,]2 z2 | %80
[M:1/4] [D,A,][D,A,] |[M:3/4] [A,,A,]2 [A,,A,]2 [A,,A,]2 | [D,A,]2 z2 [A,,A,]2 | [D,A,]6- | %84
[M:2/4] [D,A,]4 |] %85
V:3
 x6 | x6 | x6 | x6 | x6 | x6 | x6 | x6 | x6 | x6 | x6 | x6 | x6 | x6 | x6 | x4[K:bass] x2 | %16
[M:2/4] x4 |[M:1/4][K:treble] x2 |[M:3/4] x6 | x6 | x6 | x6 | x6 | x6 | [Fd]2 [Fc]2 F^G | %25
[M:2/4] x4 |[M:1/4] x2 |[M:3/4] x6 | x6 | x6 | x6 | x6 | x6 | x6 |[M:2/4] x4 |[M:1/4] x2 | %36
[M:3/4] z2 D2 D2 | D2 z2 z G | z2 D2 D2 | z2 D2 D2 | z2 D2 D2 | D2 z2 z A | z2 D2 D2 |[M:2/4] x4 | %44
[M:1/4] x2 |[M:3/4] z2 G,2 G,2 | G,2 =c2 B2 | x6 | E2 z2 z G | z2 =C2 C2 | =C2 E2 F2 | z2 B,2 B,2 | %52
[M:2/4] B,2 z2 |[M:1/4] x2 |[M:3/4] x6 | x6 | x6 | x6 | x6 | x6 | x6 | x6 | x6 | x6 | x6 | x6 | %66
 x6 | x6 | x6 |[M:2/4] x4 |[M:1/4] x2 |[M:3/4] x6 | x6 | x6 |[M:2/4] x4 |[M:1/4] x2 |[M:3/4] x6 | %77
 x6 | x6 |[M:2/4] x4 |[M:1/4] x2 |[M:3/4] x6 | x6 | x6 |[M:2/4] x4 |] %85
V:4
 x6 | x6 | x6 | x6 | x6 | x6 | x6 | x6 | x6 | x6 | x6 | x6 | x6 | x6 | x6 | x4[K:bass] x2 | %16
[M:2/4] x4 |[M:1/4][K:treble] x2 |[M:3/4] x6 | x6 | x6 | x6 | x6 | x6 | x6 |[M:2/4] x4 | %26
[M:1/4] x2 |[M:3/4] x6 | x6 | x6 | x6 | x6 | x6 | x6 |[M:2/4] x4 |[M:1/4] x2 |[M:3/4] x6 | %37
 z2 z2 D2 | x6 | x6 | x6 | z2 z2 D2 | x6 |[M:2/4] x4 |[M:1/4] x2 |[M:3/4] x6 | x6 | x6 | %48
 z2 z2 A,2 | x6 | x6 | x6 |[M:2/4] x4 |[M:1/4] x2 |[M:3/4] x6 | x6 | x6 | x6 | x6 | x6 | x6 | x6 | %62
 x6 | x6 | x6 | x6 | x6 | x6 | x6 |[M:2/4] x4 |[M:1/4] x2 |[M:3/4] x6 | x6 | x6 |[M:2/4] x4 | %75
[M:1/4] x2 |[M:3/4] x6 | x6 | x6 |[M:2/4] x4 |[M:1/4] x2 |[M:3/4] x6 | x6 | x6 |[M:2/4] x4 |] %85

